automatic/svg/Sega - Master System - Mark III-content.svg

<?xml version="1.0" encoding="UTF-8" standalone="no"?>
<svg
   xmlns:dc="http://purl.org/dc/elements/1.1/"
   xmlns:cc="http://creativecommons.org/ns#"
   xmlns:rdf="http://www.w3.org/1999/02/22-rdf-syntax-ns#"
   xmlns:svg="http://www.w3.org/2000/svg"
   xmlns="http://www.w3.org/2000/svg"
   viewBox="0 0 320 320"
   height="320"
   width="320"
   xml:space="preserve"
   version="1.1"
   id="svg2"><metadata
     id="metadata8"><rdf:RDF><cc:Work
         rdf:about=""><dc:format>image/svg+xml</dc:format><dc:type
           rdf:resource="http://purl.org/dc/dcmitype/StillImage" /></cc:Work></rdf:RDF></metadata><defs
     id="defs6"><clipPath
       id="clipPath16"
       clipPathUnits="userSpaceOnUse"><path
         id="path18"
         d="M 0,256 256,256 256,0 0,0 0,256 Z" /></clipPath></defs><g
     transform="matrix(1.25,0,0,-1.25,0,320)"
     id="g10"><g
       id="g12"><g
         clip-path="url(#clipPath16)"
         id="g14"><g
           transform="translate(244,168)"
           id="g20"><path
             id="path22"
             style="fill:#f2f2f2;fill-opacity:1;fill-rule:nonzero;stroke:none"
             d="m 0,0 -4,0 -224,0 -4,0 0,32.2 c 0,2.105 1.669,3.8 3.742,3.8 l 0.258,0 0,-3.111 0,-21.778 C -228,7.19 -224.591,4 -220.4,4 l 208.8,0 c 4.191,0 7.6,3.19 7.6,7.111 l 0,21.778 0,3.111 0.258,0 C -1.669,36 0,34.305 0,32.2 L 0,0 Z M 0,-7.045 C 0,-7.573 -0.399,-8 -0.893,-8 L -4,-8 l -224,0 -3.107,0 C -231.6,-8 -232,-7.573 -232,-7.045 l 0,2.091 c 0,0.527 0.4,0.954 0.893,0.954 l 3.107,0 224,0 3.107,0 C -0.399,-4 0,-4.427 0,-4.954 l 0,-2.091 z m 0,-8 C 0,-15.573 -0.399,-16 -0.893,-16 l -3.107,0 -224,0 -3.107,0 c -0.493,0 -0.893,0.427 -0.893,0.955 l 0,2.091 c 0,0.527 0.4,0.954 0.893,0.954 l 3.107,0 224,0 3.107,0 C -0.399,-12 0,-12.427 0,-12.954 l 0,-2.091 z M 0,-112.2 c 0,-2.105 -1.669,-3.8 -3.742,-3.8 l -224.516,0 c -2.073,0 -3.742,1.695 -3.742,3.8 l 0,92.2 4,0 224,0 4,0 0,-92.2 z M -220.4,36 -11.6,36 -8,36 -8,32.889 -8,11.111 C -8,9.393 -9.611,8 -11.6,8 l -208.8,0 c -1.988,0 -3.6,1.393 -3.6,3.111 l 0,21.778 0,3.111 3.6,0 z M -3.742,40 -4,40 l -4,0 -3.6,0 -208.8,0 -3.6,0 -4,0 -0.258,0 C -232.527,40 -236,36.501 -236,32.2 l 0,-32.2 0,-4 0.091,0 C -235.969,-4.309 -236,-4.628 -236,-4.954 l 0,-2.091 0,-5.909 0,-2.091 c 0,-0.327 0.031,-0.646 0.091,-0.955 l -0.091,0 0,-4 0,-92.2 c 0,-4.301 3.473,-7.8 7.742,-7.8 l 224.516,0 c 4.269,0 7.742,3.499 7.742,7.8 l 0,92.2 0,4 -0.091,0 C 3.969,-15.691 4,-15.372 4,-15.045 l 0,2.091 0,5.909 0,2.091 C 4,-4.628 3.969,-4.309 3.909,-4 L 4,-4 4,0 4,32.2 C 4,36.501 0.527,40 -3.742,40" /></g></g></g></g></svg>

<?xml version="1.0" encoding="UTF-8" standalone="no"?>
<svg
   xmlns:dc="http://purl.org/dc/elements/1.1/"
   xmlns:cc="http://creativecommons.org/ns#"
   xmlns:rdf="http://www.w3.org/1999/02/22-rdf-syntax-ns#"
   xmlns:svg="http://www.w3.org/2000/svg"
   xmlns="http://www.w3.org/2000/svg"
   viewBox="0 0 320 213.33333"
   height="213.33333"
   width="320"
   xml:space="preserve"
   id="svg2"
   version="1.1"><metadata
     id="metadata8"><rdf:RDF><cc:Work
         rdf:about=""><dc:format>image/svg+xml</dc:format><dc:type
           rdf:resource="http://purl.org/dc/dcmitype/StillImage" /></cc:Work></rdf:RDF></metadata><defs
     id="defs6"><clipPath
       id="clipPath18"
       clipPathUnits="userSpaceOnUse"><path
         id="path16"
         d="M 0,256 H 256 V 0 H 0 Z" /></clipPath></defs><g
     transform="matrix(1.3333333,0,0,-1.3333333,-10.666666,277.33333)"
     id="g10"><g
       id="g12"><g
         clip-path="url(#clipPath18)"
         id="g14"><g
           transform="translate(244,168)"
           id="g20"><path
             id="path22"
             style="fill:#f2f2f2;fill-opacity:1;fill-rule:nonzero;stroke:none"
             d="m 0,0 h -4 -224 -4 v 32.2 c 0,2.105 1.669,3.8 3.742,3.8 H -228 V 32.889 11.111 C -228,7.19 -224.591,4 -220.4,4 H -11.6 C -7.409,4 -4,7.19 -4,11.111 V 32.889 36 h 0.258 C -1.669,36 0,34.305 0,32.2 Z M 0,-7.045 C 0,-7.573 -0.399,-8 -0.893,-8 H -4 -228 -231.107 C -231.6,-8 -232,-7.573 -232,-7.045 v 2.091 c 0,0.527 0.4,0.954 0.893,0.954 H -228 -4 -0.893 C -0.399,-4 0,-4.427 0,-4.954 Z m 0,-8 C 0,-15.573 -0.399,-16 -0.893,-16 H -4 h -224 -3.107 c -0.493,0 -0.893,0.427 -0.893,0.955 v 2.091 c 0,0.527 0.4,0.954 0.893,0.954 H -228 -4 -0.893 C -0.399,-12 0,-12.427 0,-12.954 Z M 0,-112.2 c 0,-2.105 -1.669,-3.8 -3.742,-3.8 h -224.516 c -2.073,0 -3.742,1.695 -3.742,3.8 V -20 h 4 224 4 z M -220.4,36 H -11.6 -8 V 32.889 11.111 C -8,9.393 -9.611,8 -11.6,8 h -208.8 c -1.988,0 -3.6,1.393 -3.6,3.111 V 32.889 36 Z M -3.742,40 H -4 h -4 -3.6 -208.8 -3.6 -4 -0.258 C -232.527,40 -236,36.501 -236,32.2 V 0 -4 h 0.091 C -235.969,-4.309 -236,-4.628 -236,-4.954 v -2.091 -5.909 -2.091 c 0,-0.327 0.031,-0.646 0.091,-0.955 H -236 v -4 -92.2 c 0,-4.301 3.473,-7.8 7.742,-7.8 H -3.742 c 4.269,0 7.742,3.499 7.742,7.8 v 92.2 4 H 3.909 C 3.969,-15.691 4,-15.372 4,-15.045 v 2.091 5.909 2.091 C 4,-4.628 3.969,-4.309 3.909,-4 H 4 V 0 32.2 C 4,36.501 0.527,40 -3.742,40" /></g></g></g></g></svg>
